X:1
T: Country Dance
C:
R:Jig
Q:180
K:A
M:6/8
L:1/16
|:E2|A4c2 e2c2A2|F4A2 E4E2|E2F2E2 d4d2|c6 B4E2|
A4c2 e2c2A2|F4A2 E4E2|E2d2c2 B2A2G2|B6 A4e2|
f4d2 d2c2d2|e2c2A2 A2c2e2|f4d2 d2c2d2|e6 A4e2|
f4d2 d2c2d2|e2c2A2 A2c2e2|a2g2f2 e2d2c2|c6 A4:|
